resources/icons/cisco/wirelessbridge.svg

<?xml version="1.0" encoding="UTF-8"?>
<svg xmlns="http://www.w3.org/2000/svg" xmlns:xlink="http://www.w3.org/1999/xlink" width="230pt" height="200pt" viewBox="0 0 230 200" version="1.1">
<defs>
<clipPath id="clip1">
  <path d="M 190 0 L 230 0 L 230 192.71875 L 190 192.71875 Z M 190 0 "/>
</clipPath>
<clipPath id="clip2">
  <path d="M 0 11 L 221 11 L 221 192.71875 L 0 192.71875 Z M 0 11 "/>
</clipPath>
</defs>
<g id="surface1">
<path style=" stroke:none;fill-rule:nonzero;fill:rgb(1.176471%,41.176471%,59.607843%);fill-opacity:1;" d="M 55.023438 4.148438 L 2.671875 31.308594 C 130.65625 112.871094 205.898438 26.101562 205.898438 26.101562 C 129.800781 72.089844 55.023438 4.148438 55.023438 4.148438 "/>
<path style="fill:none;stroke-width:4;stroke-linecap:butt;stroke-linejoin:miter;stroke:rgb(100%,100%,100%);stroke-opacity:1;stroke-miterlimit:4;" d="M 82.811194 291.854267 L 4.021217 251.114032 C 196.639841 128.770282 309.880592 258.924579 309.880592 258.924579 C 195.352346 189.942157 82.811194 291.854267 82.811194 291.854267 Z M 82.811194 291.854267 " transform="matrix(0.664444,0,0,-0.666667,0,198.717949)"/>
<path style=" stroke:none;fill-rule:nonzero;fill:rgb(1.176471%,41.176471%,59.607843%);fill-opacity:1;" d="M 238.761719 -4.265625 C 230.117188 13.074219 205.039062 26.953125 205.039062 26.953125 L 205.039062 189.222656 L 238.761719 161.464844 L 238.761719 -4.265625 "/>
<g clip-path="url(#clip1)" clip-rule="nonzero">
<path style="fill:none;stroke-width:4;stroke-linecap:butt;stroke-linejoin:miter;stroke:rgb(100%,100%,100%);stroke-opacity:1;stroke-miterlimit:4;" d="M 359.340379 304.475361 C 346.330215 278.465595 308.587218 257.647236 308.587218 257.647236 L 308.587218 14.242939 L 359.340379 55.879657 Z M 359.340379 304.475361 " transform="matrix(0.664444,0,0,-0.666667,0,198.717949)"/>
</g>
<path style=" stroke:none;fill-rule:nonzero;fill:rgb(1.176471%,41.176471%,59.607843%);fill-opacity:1;" d="M 205.039062 26.953125 C 205.039062 26.953125 130.65625 112.871094 2.671875 31.308594 L 2.671875 189.222656 L 205.039062 189.222656 L 205.039062 26.953125 "/>
<g clip-path="url(#clip2)" clip-rule="nonzero">
<path style="fill:none;stroke-width:4;stroke-linecap:butt;stroke-linejoin:miter;stroke:rgb(100%,100%,100%);stroke-opacity:1;stroke-miterlimit:4;" d="M 308.587218 257.647236 C 308.587218 257.647236 196.639841 128.770282 4.021217 251.114032 L 4.021217 14.242939 L 308.587218 14.242939 Z M 308.587218 257.647236 " transform="matrix(0.664444,0,0,-0.666667,0,198.717949)"/>
</g>
<path style="fill:none;stroke-width:4.5;stroke-linecap:round;stroke-linejoin:miter;stroke:rgb(0%,0%,0%);stroke-opacity:1;stroke-miterlimit:1;" d="M 286.946723 109.826923 C 286.946723 109.826923 267.381506 59.518329 243.830346 109.985126 C 220.349733 160.416767 200.737484 110.102314 200.737484 110.102314 C 200.737484 110.102314 181.172267 59.752704 157.697533 110.178486 C 134.181647 160.604267 114.692856 109.862079 114.692856 109.862079 C 114.692856 109.862079 95.162913 59.518329 71.641148 109.985126 C 48.119382 160.416767 28.630592 110.102314 28.630592 110.102314 " transform="matrix(0.664444,0,0,-0.666667,0,198.717949)"/>
<path style="fill:none;stroke-width:9;stroke-linecap:round;stroke-linejoin:miter;stroke:rgb(0%,0%,0%);stroke-opacity:1;stroke-miterlimit:1;" d="M 28.630592 109.826923 C 28.630592 109.826923 48.201688 59.518329 71.717574 109.985126 C 95.23346 160.416767 114.839831 110.102314 114.839831 110.102314 C 114.839831 110.102314 134.381532 59.752704 157.89154 110.178486 C 181.407426 160.604267 200.896217 109.862079 200.896217 109.862079 C 200.896217 109.862079 220.432039 59.518329 243.947925 109.985126 C 267.463812 160.416767 286.946723 110.102314 286.946723 110.102314 " transform="matrix(0.664444,0,0,-0.666667,0,198.717949)"/>
<path style="fill:none;stroke-width:4.5;stroke-linecap:round;stroke-linejoin:miter;stroke:rgb(100%,100%,100%);stroke-opacity:1;stroke-miterlimit:1;" d="M 282.419915 109.826923 C 282.419915 109.826923 262.854698 59.518329 239.338812 109.985126 C 215.822925 160.416767 196.210676 110.102314 196.210676 110.102314 C 196.210676 110.102314 176.63958 59.752704 153.158967 110.178486 C 129.64896 160.604267 110.160169 109.862079 110.160169 109.862079 C 110.160169 109.862079 90.618468 59.518329 67.10846 109.985126 C 43.592574 160.416767 24.103783 110.102314 24.103783 110.102314 " transform="matrix(0.664444,0,0,-0.666667,0,198.717949)"/>
<path style="fill:none;stroke-width:9;stroke-linecap:round;stroke-linejoin:miter;stroke:rgb(100%,100%,100%);stroke-opacity:1;stroke-miterlimit:1;" d="M 24.103783 109.826923 C 24.103783 109.826923 43.67488 59.518329 67.190766 109.985126 C 90.700773 160.416767 110.307144 110.102314 110.307144 110.102314 C 110.307144 110.102314 129.837087 59.752704 153.358852 110.178486 C 176.880618 160.604267 196.369408 109.862079 196.369408 109.862079 C 196.369408 109.862079 215.858199 59.518329 239.409359 109.985126 C 262.931125 160.416767 282.419915 110.102314 282.419915 110.102314 " transform="matrix(0.664444,0,0,-0.666667,0,198.717949)"/>
</g>
</svg>

<svg xmlns="http://www.w3.org/2000/svg" viewBox="0 0 45 38.75" height="38.75" width="45"><defs><clipPath id="a"><path d="M0 9v297h360V9H0z"/></clipPath></defs><g clip-path="url(#a)" transform="matrix(.13 0 0 -.13 0 38.75)"><path d="M82.809 291.855l-78.79-40.742c192.622-122.34 305.86 7.813 305.86 7.813-114.527-68.981-227.07 32.929-227.07 32.929" fill="#036998"/><path d="M82.809 291.855l-78.79-40.742c192.622-122.34 305.86 7.813 305.86 7.813-114.527-68.981-227.07 32.929-227.07 32.929z" fill="none" stroke="#fff" stroke-width="4"/><path d="M359.34 304.473c-13.012-26.008-50.75-46.828-50.75-46.828V14.242l50.75 41.64v248.591" fill="#036998"/><path d="M359.34 304.473c-13.012-26.008-50.75-46.828-50.75-46.828V14.242l50.75 41.64v248.591z" fill="none" stroke="#fff" stroke-width="4"/><path d="M308.59 257.645S196.641 128.773 4.02 251.113V14.243h304.57v243.402" fill="#036998"/><path d="M308.59 257.645S196.641 128.773 4.02 251.113V14.243h304.57v243.402z" fill="none" stroke="#fff" stroke-width="4"/><path d="M286.949 109.824s-19.57-50.308-43.121.16c-23.476 50.43-43.09.121-43.09.121s-19.566-50.351-43.039.071c-23.519 50.429-43.008-.313-43.008-.313s-19.53-50.347-43.05.121c-23.52 50.43-43.012.121-43.012.121" fill="none" stroke="#000" stroke-width="4.5" stroke-linecap="round" stroke-miterlimit="1"/><path d="M28.629 109.824s19.57-50.308 43.09.16c23.512 50.43 43.121.121 43.121.121s19.539-50.351 43.051.071c23.519 50.429 43.007-.313 43.007-.313s19.532-50.347 43.051.121c23.512 50.43 43 .121 43 .121" fill="none" stroke="#000" stroke-width="9" stroke-linecap="round" stroke-miterlimit="1"/><path d="M282.422 109.824s-19.57-50.308-43.082.16c-23.52 50.43-43.129.121-43.129.121s-19.57-50.351-43.051.071c-23.512 50.429-43-.313-43-.313s-19.539-50.347-43.05.121c-23.52 50.43-43.008.121-43.008.121" fill="none" stroke="#fff" stroke-width="4.5" stroke-linecap="round" stroke-miterlimit="1"/><path d="M24.102 109.824s19.57-50.308 43.09.16c23.507 50.43 43.117.121 43.117.121s19.531-50.351 43.05.071c23.52 50.429 43.012-.313 43.012-.313s19.488-50.347 43.039.121c23.52 50.43 43.012.121 43.012.121" fill="none" stroke="#fff" stroke-width="9" stroke-linecap="round" stroke-miterlimit="1"/></g></svg>
